X: 4218
M: 6/8
L: 1/8
K: G
|:\
|:\
ded BGB | d2d d3  | efe cAc | e2e e3 |\
ded BdB | gfe dcB | d2D E2D | G3- G2d :|


